X:1
T:Brazos, HM
T:Brazos, HM
T:James Holmes Rosecrans, 1893
T:Public Domain Courtesy of the Cyber Hymnal™
C:James Holmes Rosecrans, 1893
Z:Public Domain
Z:Courtesy of the Cyber Hymnal™
%%score ( 1 2 ) ( 3 4 )
L:1/8
Q:1/4=105
M:4/4
K:Eb
V:1 treble 
V:2 treble 
V:3 bass 
V:4 bass 
V:1
 (EF) | [EG]2 [EG]2 [EG]2 [EG]2 | [EG]6 (AG) | [DF]2 [DB]2 [DB]3 [FA] | [EG]6 ([EG][FA]) | %5
 [GB]2 [GB]2 [GB]2 [GB]2 | [GB]6 ([GB][EG]) | [DF]2 [DF]2 [E=A]3 [EF] | [DB]6 z2 | %9
 [GB]2 [GB]>[GB] ([Ac][GB]) ([FA][EG]) | [EG]3 [EF] [Ec]4 | [EB]2 [EB]>[EB] [Fd][Fd][Ac][AB] | %12
 [Ge]6 |] %13
V:2
 E2 | x8 | x6 E2 | x8 | x8 | x8 | x8 | x8 | x8 | x8 | x8 | x8 | x6 |] %13
V:3
 (G,A,) | [E,B,]2 [E,B,]2 [E,B,]2 [E,B,]2 | [E,B,]6 (CB,) | [B,,B,]2 [B,,F,]2 [B,,F,]3 [D,B,] | %4
 [E,B,]6 [E,B,]2 | [E,E]2 [E,E]2 [E,E]2 [E,E]2 | [E,E]6 [E,B,]2 | [B,,B,]2 [B,,B,]2 [F,C]3 [F,C] | %8
 [B,,B,]6 z2 | [E,E]2 [E,E]>[E,E] [E,E]2 [E,B,]2 | [A,,C]3 [A,,C] [A,,A,]4 | %11
 [B,,G,]2 [B,,G,]>[B,,G,] [B,,B,][B,,B,]B,B, | [E,B,]6 |] %13
V:4
 E,2 | x8 | x6 E,2 | x8 | x8 | x8 | x8 | x8 | x8 | x8 | x8 | x6 B,B, | x6 |] %13

